X: 233
T: No_88_Bird_Dance_Song_(k).krn
N: Derived from No_88_Bird_Dance_Song_(k).krn
%%abc-version 2.0
%%abcx-abcm2ps-target-version 5.9.1 (29 Sep 2008)
%%abc-creator hum2abc beta
%%abcx-conversion-date 2019/03/15 08:38:45
%%humdrum-veritas 854473295
%%humdrum-veritas-data 1123219489
%%linebreak <none>
%%barnumbers 0
L: 1/4
M: 3/4
K: Eb clef=bass
[K:clef=bass][M:3/4]B,2B, [I:setbarnb 2]| 
F,F,C ||  
[M:2/4]B,z ||  
[M:3/4]B,2B, | 
F,F,B,3//A,// ||  
[M:2/4]A,z | 
B,/B,/ (A,3//F,//) | 
F,7//E,// | 
E,/E,/ E,3//E,// | 
E,z ||  
[M:3/4]B,F,7//E,// ||  
[M:2/4]E,z | 
E,B,,/B,,/ | 
B,,z | 
E,/E,/ E,3//E,// | 
E,2 | 
[M:3/4]B,F,7//E,// ||  
[M:2/4]E,2 | 
E,B,, | 
B,,z | 
E,/E,/ E,3//E,// | 
E,2 :|]  



